X:76
T:New Coldftream March ThFife.76, The
B:Thompson, C. & Thompson, S., 'The Compleat Tutor for the Fife', London, c.1765-1780.
S:Digitised by National Library of Scotland at: https://archive.org/details/nlsmusic
Z:vmp Roger Hare, 2019.
M:C|
L:1/8
Q:1/2=80
K:D
|: A>F | D2 d>A F2 A>F | G2 g4 e>g | f>ad>f e>gc>e |\
d2 d>d d2 :|
|: A>c | e2 c>e g2 e>g | f>ad>f e2 A>c |\
e2 c>e g2 e>g | f>ad>g e2 A>F |
D2 d>A F2 A>F |G2 g4 e>g | f>ad>f e>gc>e | d2 d>d d2 :|

